!!!OTL: MEIN SCHATZ ICH HAB ERFAHREN
!!!ARE: Europa, Mitteleuropa, Deutschland, Schlesien, Hainau
!!!SCT: E0635
!!!YEM: Copyright 1995, estate of Helmut Schaffrath.
**kern
*ICvox
*Ivox
*M6/8
*k[f#c#g#]
*A:
{8e
=1
4a
8a
8g#
8f#
8g#
=2
4.a
4e}
{8e
=3
4fn
8e
8.d
16cn
8d
=4
4.e
4r}
{8e
=5
4e
8d
8cn
8cn
8d
=6
4.e
4e}
{8e
=7
4a
8a
8g#
8a
8b
=8
4ccn
8b
4a}
{8a
=9
4e
8e
4e
8e
=10
4.a
4r}
==
!!!AGN: Liebes - Lied
!!!ONB: ESAC (Essen Associative Code) Database: ERK2
!!!AMT: compound duple
!!!AIN: vox
!!!EED: Helmut Schaffrath
!!!EEV: 1.0
*-
